src/icons/svgs/16/circle-x.svg

<svg width="16" height="16" viewBox="0 0 16 16" fill="none" xmlns="http://www.w3.org/2000/svg">
<path d="M8 15C4.13359 15 1 11.8664 1 8C1 4.13359 4.13359 1 8 1C11.8664 1 15 4.13359 15 8C15 11.8664 11.8664 15 8 15ZM10.9066 5.58008C11.1408 5.30363 11.1062 4.8891 10.8293 4.65504C10.711 4.55499 10.5612 4.50006 10.4062 4.5C10.22 4.5 10.0346 4.57905 9.90477 4.73242L8 6.98281L6.09414 4.73242C5.96563 4.5793 5.77969 4.5 5.56914 4.5C5.44336 4.5 5.29297 4.55195 5.16992 4.65586C4.8932 4.88998 4.85848 5.30445 5.09259 5.5809L7.14141 8L5.09336 10.4199C4.8582 10.6961 4.89375 11.1117 5.16992 11.3441C5.44609 11.5793 5.86172 11.5437 6.09414 11.2676L8 9.01719L9.90504 11.2687C10.1387 11.5454 10.5536 11.5807 10.8301 11.346C11.1068 11.1119 11.1415 10.6974 10.9074 10.421L8.85859 8L10.9066 5.58008Z" fill="black"/>
</svg>

<svg width="16" height="16" viewBox="0 0 16 16" xmlns="http://www.w3.org/2000/svg">
    <path d="M8 15a7 7 0 0 1-7-7 7 7 0 0 1 7-7 7 7 0 0 1 7 7 7 7 0 0 1-7 7zm2.907-9.42a.656.656 0 1 0-1.002-.848L8 6.982l-1.906-2.25A.667.667 0 0 0 5.57 4.5a.656.656 0 0 0-.477 1.08L7.143 8l-2.049 2.42a.655.655 0 1 0 1.001.848L8 9.018l1.905 2.25a.656.656 0 1 0 1.002-.847L8.86 8l2.048-2.42z"/>
</svg>
